X: 84
T:Miss Hopkins Reel
B:William Marshall A Collection Of Strathspey Reels (1781)
C:William Marshall
L:1/8
M:C|
O:Scotland
R:Reel
Z:Clark Bernst + Richard Robinson
%%Page:11 - 2
F:http://richardrobinson.tunebook.org.uk/tune/3927
%%TBL:{"version":1,"type":"tune","id":"3927"}
K:Bb
%%staves {1 2}
V:1
FGBd e2- eg | fdcB !trill!cBG(B | FG)Bd e2 eg | fdcd B/B/B B2 :: \
(!trill!gab)a gfed | 
                     (!trill!cBc)d BGGB |1 \
(!trill!gab)a (gf)ed | !trill!cBcd B/B/B B2 :|2 FGBc defg | fdcd B/B/B B2 |]
V:2 middle=d clef=bass
L:1/4
BBee | ffee | bBee | fFBB :: \
eeee | ffgg |1 eeee | ffbb :|2 BBBB | fFBB |]

